X:101
T:Across The Rockies
M:C|
L:1/8
Q:1/4=120
K:F
F2G2|\
A2A2(AG)(FG)|(AB)(AG) F3  F |G2G2 G2F2|(AB)c4 c2|
d2d2 cc  cB | A2 (AG) F2(cB)|A3 A A3 G| G2 F2   ||
